img/phone.svg

<?xml version="1.0" encoding="UTF-8" standalone="no"?>
<svg width="24px" height="24px" viewBox="0 0 24 24" version="1.1" xmlns="http://www.w3.org/2000/svg" xmlns:xlink="http://www.w3.org/1999/xlink" xmlns:sketch="http://www.bohemiancoding.com/sketch/ns">
    <!-- Generator: Sketch 3.1.1 (8761) - http://www.bohemiancoding.com/sketch -->
    <title>phone</title>
    <desc>Created with Sketch.</desc>
    <defs></defs>
    <g id="Page-1" stroke="none" stroke-width="1" fill="none" fill-rule="evenodd" sketch:type="MSPage">
        <g id="phone" sketch:type="MSArtboardGroup" fill="#9B9B9B">
            <path d="M6.81443422,8.33260879 C5.9624039,9.18472496 6.78803328,10.3944899 7.72046646,11.5478471 C9.05011377,13.1956718 10.5837683,14.6526704 11.9158157,15.7364182 C13.9294874,17.3746415 14.9771247,18.0983402 15.7943538,17.2858294 L17.881228,15.1855431 C18.2400408,14.8314948 18.8160613,14.8242938 19.1772741,15.1831427 C19.1796742,15.1855431 23.7290361,19.7185611 23.7290361,19.7185611 L23.7290361,19.7233617 C24.0710483,20.070209 24.1082496,20.6450874 23.7314362,21.0243391 L23.7290361,21.0243391 L23.7314362,21.0243391 L21.6217611,23.106623 C20.6545267,24.1111599 15.0311266,26.0218204 6.3080162,17.0962035 C-1.96747828,8.63024937 -0.0366095706,3.45754417 0.834621432,2.37379642 L2.93949633,0.269909596 C3.29590901,-0.0841386722 3.87312955,-0.0949401447 4.23314237,0.267509268 C4.23434241,0.269909596 8.91570899,4.93254526 8.91570899,4.93254526 L8.91570899,4.93854608 C9.2589212,5.28299304 9.29372244,5.85667125 8.91570899,6.23592295 L8.91570899,6.2407236" id="Shape" sketch:type="MSShapeGroup"></path>
        </g>
    </g>
</svg>

<svg viewBox="0 0 24 24" xmlns="http://www.w3.org/2000/svg"><g fill="none" fill-rule="evenodd"><path d="m6.814 8.333c-.852.852-.026 2.062.906 3.215 1.33 1.648 2.863 3.105 4.195 4.189 2.01 1.638 3.061 2.362 3.879 1.549l2.087-2.1c.359-.354.935-.361 1.296-.002.002.002 4.552 4.535 4.552 4.535v.005c.342.347.379.922.002 1.301h-.002.002l-2.11 2.082c-.967 1-6.591 2.915-15.314-6.01-8.275-8.466-6.345-13.639-5.473-14.722l2.105-2.104c.356-.354.934-.365 1.294-.002.001.002 4.683 4.665 4.683 4.665v.006c.343.344.378.918 0 1.297v.005" fill="#9b9b9b"/></g></svg>
